assets/img/icon-instagram.svg

<svg width="20" height="20" xmlns="http://www.w3.org/2000/svg" fill="none">

 <g>
  <title>Layer 1</title>
  <path id="svg_1" fill="#0000bf" d="m10,0c-2.71847,0 -3.05726,0.01313 -4.12114,0.05813c-1.06826,0.05251 -1.79085,0.21816 -2.42843,0.46569c-0.66729,0.25192 -1.27162,0.64634 -1.77085,1.15576c-0.51084,0.49807 -0.90548,1.10273 -1.15576,1.77085c-0.24753,0.63758 -0.41318,1.36017 -0.46569,2.42843c-0.04813,1.06451 -0.05813,1.40268 -0.05813,4.12114c0,2.7185 0.01313,3.0573 0.05813,4.1211c0.05251,1.0652 0.21816,1.7909 0.46569,2.4285c0.25192,0.6673 0.64634,1.2716 1.15576,1.7708c0.49807,0.5109 1.10273,0.9055 1.77085,1.1558c0.63758,0.2444 1.3633,0.4132 2.42843,0.4657c1.06451,0.0481 1.40267,0.0581 4.12114,0.0581c2.7185,0 3.0573,-0.0131 4.1211,-0.0581c1.0652,-0.0525 1.7909,-0.2219 2.4285,-0.4657c0.6673,-0.2519 1.2716,-0.6464 1.7708,-1.1558c0.5115,-0.4975 0.9063,-1.1023 1.1558,-1.7708c0.2444,-0.6376 0.4132,-1.3633 0.4657,-2.4285c0.0481,-1.0645 0.0581,-1.4026 0.0581,-4.1211c0,-2.71846 -0.0131,-3.05726 -0.0581,-4.12114c-0.0525,-1.06513 -0.2219,-1.7946 -0.4657,-2.42843c-0.2519,-0.66729 -0.6464,-1.27162 -1.1558,-1.77085c-0.4975,-0.5115 -1.1023,-0.90625 -1.7708,-1.15576c-0.6376,-0.24753 -1.3633,-0.41318 -2.4285,-0.46569c-1.0645,-0.04813 -1.4026,-0.05813 -4.1211,-0.05813zm0,1.80023c2.6697,0 2.9885,0.01312 4.0436,0.05813c0.9733,0.04563 1.5033,0.20815 1.8553,0.34567c0.435,0.16059 0.8288,0.4162 1.1526,0.74821c0.3315,0.32244 0.5861,0.71531 0.7451,1.14952c0.1375,0.35192 0.3,0.88199 0.3457,1.85523c0.045,1.05514 0.0581,1.37455 0.0581,4.04361c0,2.6691 -0.0131,2.9885 -0.0619,4.0437c-0.0525,0.9732 -0.215,1.5033 -0.3519,1.8552c-0.1894,0.4694 -0.4007,0.7976 -0.7495,1.1526c-0.3249,0.33 -0.7184,0.5843 -1.1526,0.7451c-0.3476,0.1375 -0.8851,0.3001 -1.8621,0.3457c-1.0608,0.045 -1.3733,0.0581 -4.0499,0.0581c-2.67659,0 -2.9885,-0.0131 -4.05051,-0.0619c-0.97325,-0.0525 -1.51019,-0.215 -1.86211,-0.3519c-0.47506,-0.1894 -0.80072,-0.4007 -1.14952,-0.7494c-0.35192,-0.352 -0.57569,-0.687 -0.74822,-1.1527c-0.14001,-0.3475 -0.30003,-0.8851 -0.35191,-1.8621c-0.03563,-1.0483 -0.05251,-1.3733 -0.05251,-4.03738c0,-2.66283 0.01688,-2.9885 0.05251,-4.04988c0.05188,-0.97699 0.2119,-1.51331 0.35191,-1.86211c0.17253,-0.47568 0.39693,-0.80072 0.74822,-1.15264c0.34817,-0.34817 0.67446,-0.5732 1.14952,-0.74947c0.35192,-0.13689 0.87574,-0.29941 1.85273,-0.34817c1.06076,-0.03813 1.3733,-0.05188 4.04613,-0.05188l0.04126,0.02876zm0,3.06725c-0.67425,-0.00024 -1.34193,0.13238 -1.9649,0.39029c-0.62297,0.2579 -1.18901,0.63605 -1.66577,1.11281c-0.47676,0.47676 -0.85491,1.0428 -1.11281,1.66577c-0.25791,0.62297 -0.39053,1.29066 -0.39029,1.96495c-0.00024,0.6742 0.13238,1.3419 0.39029,1.9648c0.2579,0.623 0.63605,1.1891 1.11281,1.6658c0.47676,0.4768 1.0428,0.8549 1.66577,1.1128c0.62297,0.2579 1.29065,0.3906 1.9649,0.3903c0.6742,0.0003 1.3419,-0.1324 1.9649,-0.3903c0.623,-0.2579 1.189,-0.636 1.6658,-1.1128c0.4767,-0.4767 0.8549,-1.0428 1.1128,-1.6658c0.2579,-0.6229 0.3905,-1.2906 0.3903,-1.9648c0.0002,-0.67429 -0.1324,-1.34198 -0.3903,-1.96495c-0.2579,-0.62297 -0.6361,-1.18901 -1.1128,-1.66577c-0.4768,-0.47676 -1.0428,-0.85491 -1.6658,-1.11281c-0.623,-0.25791 -1.2907,-0.39053 -1.9649,-0.39029zm0,8.46732c-1.84273,0 -3.33354,-1.4908 -3.33354,-3.3335c0,-1.84278 1.49081,-3.33359 3.33354,-3.33359c1.8427,0 3.3335,1.49081 3.3335,3.33359c0,1.8427 -1.4908,3.3335 -3.3335,3.3335zm6.5408,-8.67234c-0.0003,0.31858 -0.1271,0.624 -0.3525,0.84915c-0.2254,0.22515 -0.5309,0.35162 -0.8495,0.35162c-0.1575,0 -0.3135,-0.03102 -0.459,-0.09131c-0.1456,-0.06028 -0.2778,-0.14863 -0.3892,-0.26002c-0.1114,-0.11139 -0.1997,-0.24362 -0.26,-0.38915c-0.0603,-0.14554 -0.0913,-0.30152 -0.0913,-0.45904c0,-0.15753 0.031,-0.31351 0.0913,-0.45904c0.0603,-0.14553 0.1486,-0.27777 0.26,-0.38915c0.1114,-0.11139 0.2436,-0.19975 0.3892,-0.26003c0.1455,-0.06028 0.3015,-0.09131 0.459,-0.09131c0.6607,0 1.202,0.53757 1.202,1.19828z"/>
 </g>
</svg>

<svg width="20" height="20" viewBox="0 0 20 20" fill="none" xmlns="http://www.w3.org/2000/svg">
<path d="M10 0C7.28153 0 6.94274 0.0131266 5.87886 0.0581323C4.8106 0.110639 4.08801 0.276285 3.45043 0.523815C2.78314 0.775735 2.17881 1.17016 1.67958 1.67958C1.16874 2.17765 0.774095 2.78231 0.523815 3.45043C0.276285 4.08801 0.110639 4.8106 0.0581323 5.87886C0.0100013 6.94337 0 7.28154 0 10C0 12.7185 0.0131266 13.0573 0.0581323 14.1211C0.110639 15.1863 0.276285 15.912 0.523815 16.5496C0.775735 17.2169 1.17016 17.8212 1.67958 18.3204C2.17765 18.8313 2.78231 19.2259 3.45043 19.4762C4.08801 19.7206 4.81373 19.8894 5.87886 19.9419C6.94337 19.99 7.28153 20 10 20C12.7185 20 13.0573 19.9869 14.1211 19.9419C15.1863 19.8894 15.912 19.72 16.5496 19.4762C17.2169 19.2243 17.8212 18.8298 18.3204 18.3204C18.8319 17.8229 19.2267 17.2181 19.4762 16.5496C19.7206 15.912 19.8894 15.1863 19.9419 14.1211C19.99 13.0566 20 12.7185 20 10C20 7.28154 19.9869 6.94274 19.9419 5.87886C19.8894 4.81373 19.72 4.08426 19.4762 3.45043C19.2243 2.78314 18.8298 2.17881 18.3204 1.67958C17.8229 1.16808 17.2181 0.773334 16.5496 0.523815C15.912 0.276285 15.1863 0.110639 14.1211 0.0581323C13.0566 0.0100013 12.7185 0 10 0ZM10 1.80023C12.6697 1.80023 12.9885 1.81335 14.0436 1.85836C15.0169 1.90399 15.5469 2.06651 15.8989 2.20403C16.3339 2.36462 16.7277 2.62023 17.0515 2.95224C17.383 3.27468 17.6376 3.66755 17.7966 4.10176C17.9341 4.45368 18.0966 4.98375 18.1423 5.95699C18.1873 7.01213 18.2004 7.33154 18.2004 10.0006C18.2004 12.6697 18.1873 12.9891 18.1385 14.0443C18.086 15.0175 17.9235 15.5476 17.7866 15.8995C17.5972 16.3689 17.3859 16.6971 17.0371 17.0521C16.7122 17.3821 16.3187 17.6364 15.8845 17.7972C15.5369 17.9347 14.9994 18.0973 14.0224 18.1429C12.9616 18.1879 12.6491 18.201 9.9725 18.201C7.29591 18.201 6.984 18.1879 5.92199 18.1391C4.94874 18.0866 4.4118 17.9241 4.05988 17.7872C3.58482 17.5978 3.25916 17.3865 2.91036 17.0378C2.55844 16.6858 2.33467 16.3508 2.16214 15.8851C2.02213 15.5376 1.86211 15 1.81023 14.023C1.7746 12.9747 1.75772 12.6497 1.75772 9.98562C1.75772 7.32279 1.7746 6.99712 1.81023 5.93574C1.86211 4.95875 2.02213 4.42243 2.16214 4.07363C2.33467 3.59795 2.55907 3.27291 2.91036 2.92099C3.25853 2.57282 3.58482 2.34779 4.05988 2.17152C4.4118 2.03463 4.93562 1.87211 5.91261 1.82335C6.97337 1.78522 7.28591 1.77147 9.95874 1.77147L10 1.80023ZM10 4.86748C9.32575 4.86724 8.65807 4.99986 8.0351 5.25777C7.41213 5.51567 6.84609 5.89382 6.36933 6.37058C5.89257 6.84734 5.51442 7.41338 5.25652 8.03635C4.99861 8.65932 4.86599 9.32701 4.86623 10.0013C4.86599 10.6755 4.99861 11.3432 5.25652 11.9661C5.51442 12.5891 5.89257 13.1552 6.36933 13.6319C6.84609 14.1087 7.41213 14.4868 8.0351 14.7447C8.65807 15.0026 9.32575 15.1353 10 15.135C10.6742 15.1353 11.3419 15.0026 11.9649 14.7447C12.5879 14.4868 13.1539 14.1087 13.6307 13.6319C14.1074 13.1552 14.4856 12.5891 14.7435 11.9661C15.0014 11.3432 15.134 10.6755 15.1338 10.0013C15.134 9.32701 15.0014 8.65932 14.7435 8.03635C14.4856 7.41338 14.1074 6.84734 13.6307 6.37058C13.1539 5.89382 12.5879 5.51567 11.9649 5.25777C11.3419 4.99986 10.6742 4.86724 10 4.86748ZM10 13.3348C8.15727 13.3348 6.66646 11.844 6.66646 10.0013C6.66646 8.15852 8.15727 6.66771 10 6.66771C11.8427 6.66771 13.3335 8.15852 13.3335 10.0013C13.3335 11.844 11.8427 13.3348 10 13.3348ZM16.5408 4.66246C16.5405 4.98104 16.4137 5.28646 16.1883 5.51161C15.9629 5.73676 15.6574 5.86323 15.3388 5.86323C15.1813 5.86323 15.0253 5.83221 14.8798 5.77192C14.7342 5.71164 14.602 5.62329 14.4906 5.5119C14.3792 5.40051 14.2909 5.26828 14.2306 5.12275C14.1703 4.97721 14.1393 4.82123 14.1393 4.66371C14.1393 4.50618 14.1703 4.3502 14.2306 4.20467C14.2909 4.05914 14.3792 3.9269 14.4906 3.81552C14.602 3.70413 14.7342 3.61577 14.8798 3.55549C15.0253 3.49521 15.1813 3.46418 15.3388 3.46418C15.9995 3.46418 16.5408 4.00175 16.5408 4.66246Z" fill="#DCF64B"/>
</svg>
